svg/message_star.svg

<svg xmlns="http://www.w3.org/2000/svg" viewBox="0 0 24 24"><path d="M20 2H4c-1.1 0-2 .9-2 2v18l4-4h14c1.1 0 2-.9 2-2V4c0-1.1-.9-2-2-2m-5.4 12L12 12.4 9.4 14l.7-3-2.3-2 3-.3L12 6l1.2 2.8 3 .3-2.3 2z"/></svg>

<svg xmlns="http://www.w3.org/2000/svg" id="mdi-message-star" viewBox="0 0 24 24"><path d="M20 2H4C2.9 2 2 2.9 2 4V22L6 18H20C21.1 18 22 17.1 22 16V4C22 2.9 21.1 2 20 2M14.6 14L12 12.4L9.4 14L10.1 11L7.8 9L10.8 8.7L12 6L13.2 8.8L16.2 9.1L13.9 11.1L14.6 14Z" /></svg>
